StripePaymentSheet/StripePaymentSheet/Resources/StripePaymentSheet.xcassets/Link/link_icon.imageset/Link.svg

<svg fill="none" height="16" viewBox="0 0 16 16" width="16" xmlns="http://www.w3.org/2000/svg"><path d="m8 16c4.4183 0 8-3.5817 8-8 0-4.41829-3.5817-8-8-8-4.41828 0-8 3.58171-8 8 0 4.4183 3.58172 8 8 8z" fill="#00d66f"/><path d="m7.63174 3.19995h-2.46719c.48 2.0064 1.8816 3.7216 3.6352 4.8-1.7568 1.0784-3.1552 2.79355-3.6352 4.79995h2.46719c.6112-1.856 2.304-3.46875 4.38396-3.79835v-2.0064c-2.08316-.3264-3.77596-1.9392-4.38396-3.7952z" fill="#011e0f"/></svg>

<svg width="16" height="16" viewBox="0 0 16 16" fill="none" xmlns="http://www.w3.org/2000/svg">
<path d="M8 16C12.4183 16 16 12.4183 16 8C16 3.58171 12.4183 0 8 0C3.58172 0 0 3.58171 0 8C0 12.4183 3.58172 16 8 16Z" fill="#00D66F"/>
<path d="M7.63174 3.19995H5.16455C5.64455 5.20635 7.04615 6.92155 8.79975 7.99995C7.04295 9.07835 5.64455 10.7935 5.16455 12.7999H7.63174C8.24294 10.9439 9.93574 9.33115 12.0157 9.00155V6.99515C9.93254 6.66875 8.23974 5.05595 7.63174 3.19995Z" fill="#011E0F"/>
</svg>
